Catalina-dark/actions/22/format-text-bold.svg

<svg xmlns="http://www.w3.org/2000/svg" viewBox="0 0 22 22">
  <defs id="defs3051">
    <style type="text/css" id="current-color-scheme">
      .ColorScheme-Text {
        color:#f2f2f2;
      }
      </style>
  </defs>
 <path 
    style="fill:currentColor;fill-opacity:1;stroke:none" 
    d="M 3.5 3 C 3.3286269 3 3.1646509 3.0248281 3 3.0488281 L 3 5 C 4.108 5 5 5.892 5 7 L 5 10 L 5 15 C 5 16.108 4.108 17 3 17 L 3 18.951172 C 3.1646509 18.975172 3.3286269 19 3.5 19 L 5 19 L 9 19 L 14 19 C 16.769995 19 19 16.77 19 14 C 19 11.7951 17.577117 9.9533563 15.603516 9.2851562 C 16.447639 8.6468562 17 7.6443 17 6.5 C 17 4.561 15.439 3 13.5 3 L 9 3 L 5 3 L 3.5 3 z M 9 5 L 11 5 C 12.108 5 13 5.892 13 7 C 13 8.108 12.108 9 11 9 L 9 9 L 9 5 z M 9 11 L 12 11 C 13.662 11 15 12.338 15 14 C 15 15.662 13.662 17 12 17 L 9 17 L 9 11 z "
    class="ColorScheme-Text"
    />  
</svg>

<svg viewBox="0 0 22 22" xmlns="http://www.w3.org/2000/svg">
<defs>
<style id="current-color-scheme" type="text/css">.ColorScheme-Text {
        color:#dedede;
      }</style>
</defs>
<path class="ColorScheme-Text" d="m3.5 3c-0.17137 0-0.33535 0.024828-0.5 0.048828v1.9512c1.108 0 2 0.892 2 2v3 5c0 1.108-0.892 2-2 2v1.9512c0.16465 0.024 0.32863 0.048828 0.5 0.048828h1.5 4 5c2.77 0 5-2.23 5-5 0-2.2049-1.4229-4.0466-3.3965-4.7148 0.84412-0.6383 1.3965-1.6409 1.3965-2.7852 0-1.939-1.561-3.5-3.5-3.5h-4.5-4-1.5zm5.5 2h2c1.108 0 2 0.892 2 2s-0.892 2-2 2h-2v-4zm0 6h3c1.662 0 3 1.338 3 3s-1.338 3-3 3h-3v-6z" fill="currentColor"/>
</svg>
